svg/black/btdx.svg

<svg width="32" height="32" viewBox="0 0 32 32" version="1.1" xmlns="http://www.w3.org/2000/svg" xmlns:xlink="http://www.w3.org/1999/xlink"><title>svg/black/btdx</title><desc>Created with Sketch.</desc><g id="black/btdx" stroke="none" stroke-width="1" fill="none" fill-rule="evenodd"><path d="M16,32 C24.836556,32 32,24.836556 32,16 C32,7.163444 24.836556,0 16,0 C7.163444,0 0,7.163444 0,16 C0,24.836556 7.163444,32 16,32 Z M16,3 C23.1788584,3 29,8.82114165 29,16 C29,23.1788584 23.1788584,29 16,29 C8.82114165,29 3,23.1788584 3,16 C3,8.82114165 8.82114165,3 16,3 Z M15.9615222,4.94038055 C22.04926,4.94038055 26.9854123,9.87378436 26.9854123,15.9615222 C26.9854123,22.04926 22.04926,26.9854123 15.9615222,26.9854123 C9.87378436,26.9854123 4.94038055,22.04926 4.94038055,15.9615222 C4.94038055,9.87378436 9.87378436,4.94038055 15.9615222,4.94038055 Z M15.9615222,28.0215645 C22.6209302,28.0215645 28.0188161,22.6236786 28.0188161,15.9642706 C28.0188161,9.30486258 22.6209302,3.90697674 15.9615222,3.90697674 C9.30211416,3.90697674 3.90422833,9.30486258 3.90422833,15.9642706 C3.90422833,22.6236786 9.30211416,28.0215645 15.9615222,28.0215645 Z M18.0118393,16.9784355 C18.1437632,17.0581395 18.2207188,17.2065539 18.2042283,17.3632135 C18.1904863,17.5061311 18.1877378,17.6490486 18.2014799,17.797463 C18.3004228,18.9463002 19.2458774,19.8587738 20.397463,19.9164905 C21.7634249,19.9852008 22.8875264,18.872093 22.8408034,17.5116279 C22.7995772,16.2830867 21.7964059,15.2936575 20.5761099,15.2661734 C19.820296,15.2496829 19.144186,15.5932347 18.7071882,16.1374207 C18.5807611,16.2940803 18.3553911,16.3325581 18.1849894,16.22537 L16.464482,15.1672304 C16.3463002,15.0930233 16.272093,14.9638478 16.272093,14.8236786 L16.272093,14.8071882 C16.272093,14.620296 16.4012685,14.4636364 16.5799154,14.4169133 C17.6325581,14.1448203 18.3938689,13.1526427 18.3114165,11.9983087 C18.2289641,10.832981 17.2697674,9.9012685 16.1044397,9.84630021 C14.7714588,9.7858351 13.6693446,10.846723 13.6693446,12.1687104 C13.6693446,13.1966173 14.3372093,14.0678647 15.2606765,14.3756871 C15.4255814,14.4306554 15.5382664,14.5845666 15.5382664,14.7577167 L15.5382664,14.8566596 C15.5382664,15.0023256 15.4585624,15.1369979 15.3321353,15.2084567 L13.6940803,16.1264271 C13.5319239,16.2171247 13.3257928,16.1868922 13.2021142,16.046723 C12.7678647,15.5602537 12.132981,15.2579281 11.4293869,15.2689218 C10.1706131,15.2881607 9.14545455,16.3298097 9.14270613,17.5913319 C9.13995772,18.8995772 10.222833,19.9577167 11.5393235,19.9164905 C12.7403805,19.8807611 13.7270613,18.9133192 13.7875264,17.7150106 C13.7957717,17.5610994 13.7875264,17.412685 13.7682875,17.267019 C13.7463002,17.1103594 13.8205074,16.9536998 13.9551797,16.8712474 L15.6564482,15.8213531 C15.7856237,15.741649 15.9450317,15.741649 16.0742072,15.8186047 L18.0118393,16.9784355 Z M15.9972516,6.68562368 C13.0976744,6.68562368 10.7257928,8.93932347 10.5334038,11.7894292 C10.8384778,11.7399577 11.151797,11.715222 11.4706131,11.715222 C11.8306554,11.715222 12.179704,11.748203 12.5205074,11.8086681 C12.6991543,10.0469345 14.1860465,8.66997886 15.9945032,8.66997886 C17.9238901,8.67272727 19.4877378,10.2365751 19.4877378,12.1659619 C19.4877378,13.1553911 19.0754757,14.0486258 18.4131078,14.6835095 C19.0040169,14.2547569 19.7323467,13.9991543 20.5211416,13.9991543 C20.7327696,13.9991543 20.9389006,14.0183932 21.1395349,14.0513742 C21.3566596,13.4632135 21.4748414,12.8255814 21.4748414,12.1632135 C21.4748414,9.1372093 19.0232558,6.68562368 15.9972516,6.68562368 Z M11.4651163,23.0112051 C13.1856237,23.0112051 14.7164905,22.2114165 15.7114165,20.9608879 C15.2854123,20.3534884 14.9693446,19.6636364 14.7989429,18.9188161 C14.2712474,20.2435518 12.9794926,21.1780127 11.4678647,21.1780127 C9.48625793,21.1780127 7.87843552,19.5701903 7.87843552,17.5885835 C7.87843552,15.6069767 9.48625793,13.9991543 11.4678647,13.9991543 C12.2566596,13.9991543 12.9849894,14.2547569 13.5758985,14.6862579 C12.935518,14.0706131 12.5287526,13.2158562 12.5012685,12.2649049 C12.1659619,12.1989429 11.8196617,12.1659619 11.4651163,12.1659619 C8.46934461,12.1659619 6.04249471,14.5928118 6.04249471,17.5885835 C6.04249471,20.5843552 8.46934461,23.0112051 11.4651163,23.0112051 Z M20.5211416,23.0112051 C23.5169133,23.0112051 25.9437632,20.5843552 25.9437632,17.5885835 C25.9437632,15.051797 24.2012685,12.9217759 21.8513742,12.3308668 C21.8348837,12.9630021 21.7167019,13.5731501 21.5133192,14.1393235 C23.0139535,14.5680761 24.1105708,15.9505285 24.1105708,17.5885835 C24.1105708,19.5701903 22.5027484,21.1780127 20.5211416,21.1780127 C18.6604651,21.1780127 17.1295983,19.7598309 16.9509514,17.9458774 C16.6403805,17.9980973 16.3215645,18.022833 15.9945032,18.022833 C15.694926,18.022833 15.3980973,18.0008457 15.1095137,17.956871 C15.2991543,20.7794926 17.6490486,23.0112051 20.5211416,23.0112051 Z" id="Combined-Shape" fill="#000" fill-rule="nonzero"/></g></svg>

<svg width="32" height="32" viewBox="0 0 32 32" xmlns="http://www.w3.org/2000/svg"><path d="M16 32c8.837 0 16-7.163 16-16S24.837 0 16 0 0 7.163 0 16s7.163 16 16 16zm0-29c7.179 0 13 5.821 13 13s-5.821 13-13 13S3 23.179 3 16 8.821 3 16 3zm-.038 1.94c6.087 0 11.023 4.934 11.023 11.022 0 6.087-4.936 11.023-11.023 11.023-6.088 0-11.022-4.936-11.022-11.023C4.94 9.874 9.874 4.94 15.962 4.94zm0 23.082c6.659 0 12.057-5.398 12.057-12.058S22.62 3.907 15.962 3.907c-6.66 0-12.058 5.398-12.058 12.057 0 6.66 5.398 12.058 12.058 12.058zm2.05-11.044a.4.4 0 0 1 .192.385 2.332 2.332 0 0 0 2.193 2.553 2.326 2.326 0 1 0 .18-4.65 2.324 2.324 0 0 0-1.87.871.4.4 0 0 1-.522.088l-1.72-1.058a.407.407 0 0 1-.193-.343v-.017c0-.187.13-.343.308-.39a2.322 2.322 0 0 0 1.731-2.419 2.333 2.333 0 0 0-2.207-2.152 2.326 2.326 0 0 0-.843 4.53.404.404 0 0 1 .277.382v.099c0 .145-.08.28-.206.351l-1.638.918a.398.398 0 0 1-.492-.08 2.32 2.32 0 0 0-1.773-.777 2.336 2.336 0 0 0-2.286 2.322 2.323 2.323 0 1 0 4.625-.324.4.4 0 0 1 .187-.396l1.701-1.05a.4.4 0 0 1 .418-.002l1.938 1.16zM15.997 6.686a5.478 5.478 0 0 0-5.464 5.103 5.99 5.99 0 0 1 1.987.02 3.495 3.495 0 0 1 3.475-3.139 3.497 3.497 0 0 1 3.493 3.496c0 .99-.413 1.883-1.075 2.518a3.579 3.579 0 0 1 2.727-.633 5.477 5.477 0 0 0-5.142-7.366zM11.465 23.01c1.72 0 3.251-.8 4.246-2.05a5.816 5.816 0 0 1-.912-2.042 3.584 3.584 0 0 1-3.331 2.259 3.59 3.59 0 0 1 0-7.179c.789 0 1.517.256 2.108.687a3.49 3.49 0 0 1-1.075-2.421 5.421 5.421 0 0 0-6.459 5.324 5.421 5.421 0 0 0 5.423 5.422zm9.056 0a5.424 5.424 0 1 0 1.33-10.68 5.797 5.797 0 0 1-.338 1.808 3.59 3.59 0 0 1-.992 7.039 3.59 3.59 0 0 1-3.57-3.232 5.885 5.885 0 0 1-1.841.011 5.424 5.424 0 0 0 5.411 5.054z"/></svg>
